{
  "compressionlevel": -1,
  "width": 20,
  "height": 15,
  "infinite": false,
  "tilewidth": 16,
  "tileheight": 16,
  "type": "map",
  "version": "1.10",
  "tiledversion": "1.10.2",
  "orientation": "orthogonal",
  "renderorder": "right-down",
  "layers": [
    {
      "id": 1,
      "type": "tilelayer",
      "name": "ground",
      "visible": true,
      "opacity": 1,
      "width": 20,
      "height": 15,
      "data": [
        2,
        2,
        2,
        2,
        2,
        2,
        2,
        2,
        2,
        2,
        2,
        2,
        2,
        2,
        2,
        2,
        2,
        2,
        2,
        2,
        2,
        7,
        2,
        7,
        7,
        2,
        2,
        2,
        2,
        2,
        7,
        7,
        7,
        7,
        2,
        2,
        2,
        7,
        7,
        2,
        2,
        7,
        2,
        7,
        7,
        7,
        7,
        7,
        7,
        7,
        7,
        7,
        7,
        7,
        2,
        7,
        7,
        7,
        7,
        2,
        2,
        7,
        2,
        2,
        2,
        2,
        2,
        7,
        2,
        2,
        2,
        7,
        7,
        7,
        7,
        2,
        2,
        7,
        7,
        2,
        2,
        7,
        7,
        7,
        7,
        7,
        2,
        7,
        2,
        7,
        7,
        2,
        2,
        7,
        7,
        2,
        7,
        7,
        7,
        2,
        2,
        7,
        2,
        2,
        7,
        7,
        2,
        7,
        2,
        7,
        7,
        7,
        7,
        2,
        7,
        7,
        7,
        7,
        7,
        2,
        2,
        7,
        2,
        7,
        7,
        2,
        7,
        7,
        2,
        7,
        7,
        2,
        2,
        2,
        7,
        7,
        7,
        7,
        7,
        2,
        2,
        7,
        2,
        7,
        7,
        2,
        2,
        2,
        2,
        2,
        7,
        2,
        7,
        7,
        2,
        2,
        7,
        7,
        7,
        2,
        2,
        7,
        2,
        2,
        7,
        7,
        7,
        7,
        7,
        7,
        7,
        7,
        7,
        7,
        7,
        7,
        7,
        7,
        7,
        2,
        2,
        7,
        7,
        2,
        2,
        2,
        2,
        2,
        2,
        2,
        2,
        2,
        2,
        2,
        7,
        7,
        2,
        2,
        2,
        2,
        2,
        7,
        7,
        6,
        7,
        7,
        7,
        7,
        7,
        7,
        7,
        7,
        7,
        7,
        2,
        2,
        2,
        7,
        7,
        2,
        2,
        7,
        7,
        2,
        2,
        2,
        2,
        2,
        2,
        2,
        7,
        7,
        2,
        7,
        7,
        7,
        2,
        7,
        7,
        2,
        2,
        7,
        7,
        7,
        7,
        7,
        7,
        7,
        7,
        2,
        7,
        7,
        2,
        7,
        2,
        2,
        2,
        7,
        7,
        2,
        2,
        7,
        7,
        7,
        7,
        7,
        7,
        7,
        7,
        2,
        7,
        7,
        2,
        7,
        7,
        7,
        7,
        7,
        7,
        2,
        2,
        2,
        2,
        2,
        2,
        2,
        2,
        2,
        2,
        2,
        7,
        7,
        2,
        2,
        2,
        2,
        2,
        2,
        2,
        2
      ]
    },
    {
      "id": 2,
      "type": "objectgroup",
      "name": "markers",
      "visible": true,
      "opacity": 1,
      "objects": [
        {
          "id": 1,
          "name": "spawn",
          "type": "spawn",
          "x": 170,
          "y": 221
        },
        {
          "id": 2,
          "name": "slime",
          "type": "enemy",
          "x": 279,
          "y": 206
        },
        {
          "id": 2,
          "name": "slime",
          "type": "enemy",
          "x": 189,
          "y": 49
        },
        {
          "id": 2,
          "name": "slime",
          "type": "enemy",
          "x": 29,
          "y": 215
        },
        {
          "id": 7,
          "name": "torch1",
          "type": "pickup",
          "x": 59,
          "y": 38,
          "properties": [
            {
              "name": "kind",
              "type": "string",
              "value": "torch"
            },
            {
              "name": "persistent",
              "type": "bool",
              "value": true
            }
          ]
        },
        {
          "id": 4,
          "name": "key",
          "type": "pickup",
          "x": 282,
          "y": 179,
          "properties": [
            {
              "name": "kind",
              "type": "string",
              "value": "key"
            },
            {
              "name": "persistent",
              "type": "bool",
              "value": true
            }
          ]
        },
        {
          "id": 3,
          "name": "out",
          "type": "door",
          "x": 160,
          "y": 217,
          "width": 32,
          "height": 16,
          "properties": [
            {
              "name": "target_map",
              "type": "string",
              "value": "field1"
            },
            {
              "name": "spawn_x",
              "type": "string",
              "value": "160"
            },
            {
              "name": "spawn_y",
              "type": "string",
              "value": "40"
            }
          ]
        }
      ]
    }
  ],
  "nextlayerid": 3,
  "nextobjectid": 100,
  "tilesets": [],
  "properties": [
    {
      "name": "light_level",
      "type": "float",
      "value": 0.3
    }
  ]
}