{
  "compressionlevel": -1,
  "width": 20,
  "height": 15,
  "infinite": false,
  "tilewidth": 16,
  "tileheight": 16,
  "type": "map",
  "version": "1.10",
  "tiledversion": "1.10.2",
  "orientation": "orthogonal",
  "renderorder": "right-down",
  "layers": [
    {
      "id": 3,
      "type": "tilelayer",
      "name": "base",
      "visible": true,
      "opacity": 1,
      "width": 20,
      "height": 15,
      "data": [
        1,
        1,
        1,
        1,
        1,
        1,
        1,
        1,
        1,
        1,
        1,
        1,
        1,
        1,
        1,
        1,
        1,
        1,
        1,
        1,
        1,
        1,
        1,
        1,
        1,
        1,
        1,
        1,
        1,
        1,
        1,
        1,
        1,
        1,
        1,
        1,
        1,
        1,
        1,
        1,
        1,
        1,
        1,
        1,
        1,
        1,
        1,
        1,
        1,
        1,
        1,
        1,
        1,
        1,
        1,
        1,
        1,
        1,
        1,
        1,
        1,
        1,
        1,
        1,
        1,
        1,
        1,
        1,
        1,
        1,
        1,
        1,
        1,
        1,
        1,
        1,
        1,
        1,
        1,
        1,
        1,
        1,
        1,
        1,
        1,
        1,
        1,
        1,
        1,
        1,
        1,
        1,
        1,
        1,
        1,
        1,
        1,
        1,
        1,
        1,
        1,
        1,
        1,
        1,
        1,
        1,
        1,
        1,
        1,
        7,
        7,
        7,
        7,
        7,
        7,
        1,
        1,
        1,
        1,
        1,
        1,
        7,
        7,
        7,
        7,
        7,
        7,
        7,
        7,
        7,
        1,
        1,
        1,
        1,
        7,
        1,
        1,
        1,
        1,
        1,
        1,
        1,
        1,
        1,
        1,
        1,
        1,
        1,
        1,
        1,
        1,
        1,
        1,
        1,
        7,
        1,
        1,
        1,
        1,
        1,
        1,
        1,
        1,
        1,
        1,
        1,
        1,
        1,
        1,
        1,
        1,
        1,
        1,
        1,
        7,
        1,
        1,
        1,
        1,
        1,
        1,
        7,
        7,
        7,
        7,
        7,
        7,
        7,
        7,
        7,
        1,
        1,
        1,
        1,
        7,
        1,
        1,
        1,
        1,
        1,
        1,
        1,
        1,
        1,
        1,
        1,
        1,
        1,
        1,
        7,
        7,
        7,
        7,
        7,
        7,
        1,
        1,
        1,
        1,
        1,
        1,
        1,
        1,
        1,
        1,
        1,
        1,
        1,
        1,
        1,
        1,
        1,
        1,
        1,
        1,
        1,
        1,
        1,
        1,
        1,
        1,
        1,
        1,
        1,
        1,
        1,
        1,
        1,
        1,
        1,
        1,
        1,
        1,
        1,
        1,
        1,
        1,
        1,
        1,
        1,
        1,
        1,
        1,
        1,
        1,
        1,
        1,
        1,
        1,
        1,
        1,
        1,
        1,
        1,
        1,
        1,
        1,
        1,
        1,
        1,
        1,
        1,
        1,
        1,
        1,
        1,
        1,
        1,
        1,
        1,
        1,
        1,
        1,
        1,
        1,
        1,
        1,
        1,
        1,
        1
      ]
    },
    {
      "id": 1,
      "type": "tilelayer",
      "name": "ground",
      "visible": true,
      "opacity": 1,
      "width": 20,
      "height": 15,
      "data": [
        2,
        8,
        8,
        8,
        8,
        8,
        8,
        8,
        8,
        8,
        1,
        1,
        8,
        8,
        8,
        8,
        8,
        8,
        8,
        8,
        2,
        1,
        1,
        1,
        1,
        1,
        1,
        1,
        1,
        1,
        1,
        1,
        1,
        1,
        1,
        1,
        1,
        1,
        1,
        8,
        2,
        1,
        1,
        1,
        1,
        1,
        1,
        1,
        1,
        1,
        1,
        1,
        1,
        1,
        1,
        1,
        1,
        1,
        1,
        8,
        2,
        1,
        1,
        1,
        1,
        1,
        1,
        1,
        1,
        1,
        1,
        1,
        1,
        1,
        1,
        1,
        1,
        1,
        1,
        8,
        2,
        1,
        1,
        1,
        1,
        1,
        1,
        1,
        14,
        9,
        9,
        9,
        9,
        9,
        9,
        13,
        1,
        1,
        1,
        8,
        2,
        9,
        9,
        9,
        9,
        9,
        9,
        9,
        18,
        20,
        10,
        10,
        10,
        10,
        19,
        12,
        1,
        1,
        1,
        8,
        2,
        10,
        10,
        10,
        10,
        10,
        10,
        10,
        10,
        16,
        34,
        34,
        34,
        34,
        11,
        12,
        1,
        1,
        1,
        8,
        21,
        21,
        21,
        21,
        21,
        21,
        21,
        21,
        21,
        21,
        21,
        7,
        7,
        34,
        11,
        12,
        1,
        1,
        1,
        1,
        21,
        21,
        21,
        21,
        21,
        21,
        21,
        21,
        21,
        21,
        21,
        7,
        7,
        34,
        11,
        12,
        1,
        1,
        1,
        1,
        8,
        9,
        9,
        9,
        9,
        9,
        9,
        9,
        9,
        13,
        34,
        34,
        34,
        34,
        11,
        12,
        1,
        1,
        1,
        8,
        8,
        10,
        10,
        10,
        10,
        10,
        10,
        10,
        19,
        17,
        9,
        9,
        9,
        9,
        18,
        12,
        1,
        1,
        1,
        8,
        8,
        1,
        1,
        1,
        1,
        1,
        1,
        1,
        15,
        10,
        10,
        10,
        10,
        10,
        10,
        16,
        1,
        1,
        1,
        8,
        8,
        1,
        1,
        1,
        1,
        1,
        1,
        1,
        1,
        1,
        1,
        1,
        1,
        1,
        1,
        1,
        1,
        1,
        1,
        8,
        8,
        1,
        1,
        1,
        1,
        1,
        1,
        1,
        1,
        1,
        1,
        1,
        1,
        1,
        1,
        1,
        1,
        1,
        1,
        8,
        8,
        8,
        8,
        8,
        8,
        8,
        8,
        8,
        8,
        8,
        1,
        1,
        8,
        8,
        8,
        8,
        8,
        8,
        8,
        8
      ]
    },
    {
      "id": 2,
      "type": "objectgroup",
      "name": "markers",
      "visible": true,
      "opacity": 1,
      "objects": [
        {
          "id": 1,
          "name": "spawn",
          "type": "spawn",
          "x": 17,
          "y": 135
        },
        {
          "id": 2,
          "name": "bomb",
          "type": "pickup",
          "x": 130.16927083333334,
          "y": 141.85677083333334,
          "properties": [
            {
              "name": "kind",
              "type": "string",
              "value": "bomb"
            }
          ]
        },
        {
          "id": 4,
          "name": "shrine",
          "type": "shrine",
          "x": 179,
          "y": 116,
          "width": 24,
          "height": 24
        },
        {
          "id": 100,
          "name": "pickup_100",
          "type": "pickup",
          "x": 145.92773437500003,
          "y": 126.39778645833331,
          "properties": [
            {
              "name": "kind",
              "type": "string",
              "value": "coin"
            }
          ]
        },
        {
          "id": 101,
          "name": "pickup_101",
          "type": "pickup",
          "x": 161.49283854166669,
          "y": 142.62890625,
          "properties": [
            {
              "name": "kind",
              "type": "string",
              "value": "heart"
            }
          ]
        },
        {
          "id": 102,
          "name": "pickup_102",
          "type": "pickup",
          "x": 145.84244791666669,
          "y": 142.04947916666669,
          "properties": [
            {
              "name": "kind",
              "type": "string",
              "value": "coin"
            }
          ]
        },
        {
          "id": 103,
          "name": "pickup_103",
          "type": "pickup",
          "x": 161.40755208333331,
          "y": 126.71809895833334,
          "properties": [
            {
              "name": "kind",
              "type": "string",
              "value": "heart"
            }
          ]
        },
        {
          "id": 104,
          "name": "door_N",
          "type": "door",
          "x": 160,
          "y": 0,
          "width": 32,
          "height": 16,
          "properties": [
            {
              "name": "target_map",
              "type": "string",
              "value": "E-6"
            },
            {
              "name": "spawn_x",
              "type": "string",
              "value": "160"
            },
            {
              "name": "spawn_y",
              "type": "string",
              "value": "200"
            }
          ]
        },
        {
          "id": 105,
          "name": "door_S",
          "type": "door",
          "x": 160,
          "y": 224,
          "width": 32,
          "height": 16,
          "properties": [
            {
              "name": "target_map",
              "type": "string",
              "value": "G-6"
            },
            {
              "name": "spawn_x",
              "type": "string",
              "value": "160"
            },
            {
              "name": "spawn_y",
              "type": "string",
              "value": "40"
            }
          ]
        },
        {
          "id": 106,
          "name": "door_W",
          "type": "door",
          "x": 0,
          "y": 112,
          "width": 16,
          "height": 32,
          "properties": [
            {
              "name": "target_map",
              "type": "string",
              "value": "F-5"
            },
            {
              "name": "spawn_x",
              "type": "string",
              "value": "295"
            },
            {
              "name": "spawn_y",
              "type": "string",
              "value": "145"
            }
          ]
        },
        {
          "id": 107,
          "name": "door_E",
          "type": "door",
          "x": 304,
          "y": 112,
          "width": 16,
          "height": 32,
          "properties": [
            {
              "name": "target_map",
              "type": "string",
              "value": "F-7"
            },
            {
              "name": "spawn_x",
              "type": "string",
              "value": "32"
            },
            {
              "name": "spawn_y",
              "type": "string",
              "value": "112"
            }
          ]
        }
      ]
    }
  ],
  "nextlayerid": 4,
  "nextobjectid": 108,
  "tilesets": []
}