{
  "compressionlevel": -1,
  "width": 20,
  "height": 15,
  "infinite": false,
  "tilewidth": 16,
  "tileheight": 16,
  "type": "map",
  "version": "1.10",
  "tiledversion": "1.10.2",
  "orientation": "orthogonal",
  "renderorder": "right-down",
  "layers": [
    {
      "id": 1,
      "type": "tilelayer",
      "name": "ground",
      "visible": true,
      "opacity": 1,
      "width": 20,
      "height": 15,
      "data": [
        2,
        2,
        2,
        2,
        2,
        2,
        2,
        2,
        2,
        2,
        2,
        2,
        2,
        2,
        2,
        2,
        2,
        2,
        2,
        2,
        2,
        1,
        1,
        1,
        1,
        1,
        1,
        1,
        1,
        1,
        1,
        1,
        1,
        1,
        1,
        1,
        1,
        1,
        1,
        2,
        2,
        1,
        1,
        1,
        1,
        1,
        1,
        1,
        1,
        1,
        1,
        1,
        1,
        1,
        1,
        1,
        1,
        1,
        1,
        2,
        2,
        1,
        1,
        1,
        1,
        1,
        1,
        1,
        1,
        1,
        1,
        1,
        1,
        1,
        1,
        1,
        1,
        1,
        1,
        2,
        2,
        1,
        1,
        1,
        1,
        1,
        1,
        1,
        1,
        1,
        1,
        1,
        1,
        1,
        1,
        1,
        1,
        1,
        1,
        2,
        2,
        1,
        1,
        1,
        1,
        1,
        1,
        1,
        1,
        1,
        1,
        1,
        1,
        1,
        1,
        1,
        1,
        1,
        1,
        2,
        2,
        1,
        1,
        1,
        1,
        1,
        1,
        1,
        1,
        1,
        3,
        3,
        3,
        3,
        1,
        1,
        1,
        1,
        1,
        2,
        1,
        1,
        1,
        1,
        1,
        1,
        1,
        1,
        1,
        1,
        3,
        1,
        1,
        3,
        1,
        1,
        1,
        1,
        1,
        2,
        1,
        1,
        1,
        1,
        1,
        1,
        1,
        1,
        1,
        1,
        3,
        1,
        1,
        3,
        1,
        1,
        1,
        1,
        1,
        2,
        2,
        1,
        1,
        1,
        1,
        1,
        1,
        1,
        1,
        1,
        3,
        3,
        3,
        3,
        1,
        1,
        1,
        1,
        1,
        2,
        2,
        1,
        1,
        1,
        1,
        1,
        1,
        1,
        1,
        1,
        1,
        1,
        1,
        1,
        1,
        1,
        1,
        1,
        1,
        2,
        2,
        1,
        1,
        1,
        1,
        1,
        1,
        1,
        1,
        1,
        1,
        1,
        1,
        1,
        1,
        1,
        1,
        1,
        1,
        2,
        2,
        1,
        1,
        1,
        1,
        1,
        1,
        1,
        1,
        1,
        1,
        1,
        1,
        1,
        1,
        1,
        1,
        1,
        1,
        2,
        2,
        1,
        1,
        1,
        1,
        1,
        1,
        1,
        1,
        1,
        1,
        1,
        1,
        1,
        1,
        1,
        1,
        1,
        1,
        2,
        2,
        2,
        2,
        2,
        2,
        2,
        2,
        2,
        2,
        2,
        2,
        2,
        2,
        2,
        2,
        2,
        2,
        2,
        2,
        2
      ]
    },
    {
      "id": 2,
      "type": "objectgroup",
      "name": "markers",
      "visible": true,
      "opacity": 1,
      "objects": [
        {
          "id": 1,
          "name": "spawn",
          "type": "spawn",
          "x": 17,
          "y": 135
        },
        {
          "id": 2,
          "name": "bomb",
          "type": "pickup",
          "x": 86,
          "y": 136,
          "properties": [
            {
              "name": "kind",
              "type": "string",
              "value": "bomb"
            }
          ]
        },
        {
          "id": 3,
          "name": "back",
          "type": "door",
          "x": 1,
          "y": 112,
          "width": 16,
          "height": 32,
          "properties": [
            {
              "name": "target_map",
              "type": "string",
              "value": "field1"
            },
            {
              "name": "spawn_x",
              "type": "string",
              "value": "280"
            },
            {
              "name": "spawn_y",
              "type": "string",
              "value": "140"
            }
          ]
        },
        {
          "id": 4,
          "name": "shrine",
          "type": "shrine",
          "x": 179,
          "y": 116,
          "width": 24,
          "height": 24
        },
        {
          "id": 100,
          "name": "pickup_100",
          "type": "pickup",
          "x": 148,
          "y": 128,
          "properties": [
            {
              "name": "kind",
              "type": "string",
              "value": "coin"
            }
          ]
        },
        {
          "id": 101,
          "name": "pickup_101",
          "type": "pickup",
          "x": 148,
          "y": 142,
          "properties": [
            {
              "name": "kind",
              "type": "string",
              "value": "heart"
            }
          ]
        },
        {
          "id": 102,
          "name": "pickup_102",
          "type": "pickup",
          "x": 146,
          "y": 157,
          "properties": [
            {
              "name": "kind",
              "type": "string",
              "value": "coin"
            }
          ]
        },
        {
          "id": 103,
          "name": "pickup_103",
          "type": "pickup",
          "x": 146,
          "y": 114,
          "properties": [
            {
              "name": "kind",
              "type": "string",
              "value": "heart"
            }
          ]
        }
      ]
    }
  ],
  "nextlayerid": 3,
  "nextobjectid": 104,
  "tilesets": []
}