{
  "compressionlevel": -1,
  "width": 20,
  "height": 15,
  "infinite": false,
  "tilewidth": 16,
  "tileheight": 16,
  "type": "map",
  "version": "1.10",
  "tiledversion": "1.10.2",
  "orientation": "orthogonal",
  "renderorder": "right-down",
  "layers": [
    {
      "id": 1,
      "type": "tilelayer",
      "name": "ground",
      "visible": true,
      "opacity": 1,
      "width": 20,
      "height": 15,
      "data": [
        2,
        2,
        2,
        2,
        2,
        2,
        2,
        2,
        2,
        2,
        2,
        2,
        2,
        2,
        2,
        2,
        2,
        2,
        2,
        2,
        2,
        1,
        1,
        1,
        1,
        1,
        1,
        1,
        1,
        1,
        7,
        7,
        1,
        1,
        1,
        1,
        1,
        1,
        1,
        2,
        2,
        1,
        1,
        1,
        1,
        1,
        1,
        1,
        1,
        1,
        7,
        7,
        7,
        7,
        7,
        7,
        7,
        1,
        1,
        2,
        2,
        1,
        1,
        1,
        1,
        1,
        1,
        1,
        1,
        1,
        7,
        7,
        7,
        7,
        7,
        7,
        7,
        1,
        1,
        2,
        2,
        1,
        1,
        1,
        1,
        1,
        1,
        1,
        1,
        1,
        1,
        1,
        1,
        1,
        1,
        1,
        7,
        1,
        1,
        2,
        2,
        1,
        1,
        1,
        1,
        1,
        1,
        1,
        1,
        1,
        1,
        1,
        1,
        1,
        1,
        1,
        7,
        1,
        1,
        2,
        2,
        1,
        1,
        1,
        1,
        1,
        1,
        1,
        1,
        1,
        1,
        1,
        1,
        1,
        1,
        2,
        3,
        2,
        1,
        2,
        2,
        2,
        2,
        2,
        2,
        2,
        2,
        2,
        2,
        2,
        2,
        2,
        2,
        2,
        2,
        2,
        7,
        2,
        2,
        2,
        2,
        1,
        1,
        1,
        8,
        1,
        8,
        5,
        5,
        5,
        5,
        5,
        5,
        5,
        5,
        7,
        7,
        1,
        1,
        2,
        2,
        1,
        1,
        1,
        8,
        8,
        8,
        5,
        5,
        5,
        5,
        5,
        5,
        5,
        1,
        7,
        7,
        1,
        1,
        2,
        2,
        1,
        1,
        1,
        1,
        8,
        8,
        5,
        5,
        5,
        5,
        5,
        5,
        1,
        1,
        1,
        1,
        1,
        1,
        2,
        2,
        1,
        1,
        1,
        8,
        1,
        1,
        1,
        1,
        1,
        1,
        1,
        1,
        1,
        1,
        1,
        1,
        1,
        1,
        2,
        2,
        1,
        1,
        1,
        1,
        1,
        1,
        1,
        1,
        1,
        1,
        1,
        1,
        1,
        1,
        1,
        1,
        1,
        1,
        2,
        2,
        1,
        1,
        1,
        1,
        1,
        1,
        1,
        1,
        1,
        1,
        1,
        1,
        1,
        7,
        1,
        8,
        1,
        1,
        2,
        2,
        2,
        2,
        2,
        2,
        2,
        2,
        2,
        2,
        2,
        2,
        2,
        2,
        2,
        2,
        2,
        2,
        2,
        2,
        2
      ]
    },
    {
      "id": 2,
      "type": "objectgroup",
      "name": "markers",
      "visible": true,
      "opacity": 1,
      "objects": [
        {
          "id": 1,
          "name": "spawn",
          "type": "spawn",
          "x": 31,
          "y": 187
        },
        {
          "id": 2,
          "name": "slime",
          "type": "enemy",
          "x": 232,
          "y": 73
        },
        {
          "id": 3,
          "name": "coin1",
          "type": "pickup",
          "x": 81,
          "y": 142,
          "properties": [
            {
              "name": "kind",
              "type": "string",
              "value": "coin"
            }
          ]
        },
        {
          "id": 4,
          "name": "heart1",
          "type": "pickup",
          "x": 160,
          "y": 64,
          "properties": [
            {
              "name": "kind",
              "type": "string",
              "value": "heart"
            }
          ]
        },
        {
          "id": 5,
          "name": "to_field2",
          "type": "door",
          "x": 292,
          "y": 130,
          "width": 16,
          "height": 32,
          "properties": [
            {
              "name": "target_map",
              "type": "string",
              "value": "field2"
            },
            {
              "name": "spawn_x",
              "type": "string",
              "value": "32"
            },
            {
              "name": "spawn_y",
              "type": "string",
              "value": "112"
            }
          ]
        },
        {
          "id": 5,
          "name": "to_maze2",
          "type": "door",
          "x": 295,
          "y": 188,
          "width": 16,
          "height": 32,
          "properties": [
            {
              "name": "target_map",
              "type": "string",
              "value": "maze2"
            },
            {
              "name": "spawn_x",
              "type": "string",
              "value": "17"
            },
            {
              "name": "spawn_y",
              "type": "string",
              "value": "35"
            }
          ]
        },
        {
          "id": 6,
          "name": "to_dungeon",
          "type": "door",
          "x": 160,
          "y": 16,
          "width": 32,
          "height": 8,
          "properties": [
            {
              "name": "target_map",
              "type": "string",
              "value": "dungeon"
            },
            {
              "name": "spawn_x",
              "type": "string",
              "value": "160"
            },
            {
              "name": "spawn_y",
              "type": "string",
              "value": "200"
            }
          ]
        }
      ]
    }
  ],
  "nextlayerid": 3,
  "nextobjectid": 100,
  "tilesets": []
}