{
  "compressionlevel": -1,
  "width": 25,
  "height": 21,
  "infinite": false,
  "tilewidth": 16,
  "tileheight": 16,
  "type": "map",
  "version": "1.10",
  "tiledversion": "1.10.2",
  "orientation": "orthogonal",
  "renderorder": "right-down",
  "layers": [
    {
      "id": 3,
      "type": "tilelayer",
      "name": "base",
      "visible": true,
      "opacity": 1,
      "width": 25,
      "height": 21,
      "data": [
        1,
        1,
        1,
        1,
        1,
        1,
        1,
        1,
        1,
        1,
        1,
        1,
        1,
        1,
        1,
        1,
        1,
        1,
        1,
        1,
        1,
        1,
        1,
        1,
        1,
        1,
        1,
        1,
        1,
        1,
        1,
        1,
        1,
        1,
        1,
        1,
        1,
        1,
        1,
        1,
        1,
        1,
        1,
        1,
        1,
        1,
        1,
        1,
        1,
        1,
        1,
        1,
        1,
        1,
        1,
        1,
        1,
        1,
        1,
        1,
        1,
        1,
        1,
        1,
        1,
        1,
        1,
        1,
        1,
        1,
        1,
        1,
        1,
        1,
        1,
        1,
        1,
        1,
        1,
        1,
        1,
        1,
        1,
        1,
        0,
        0,
        0,
        1,
        1,
        1,
        1,
        1,
        1,
        1,
        1,
        1,
        1,
        1,
        1,
        1,
        1,
        1,
        1,
        1,
        1,
        1,
        1,
        1,
        1,
        0,
        0,
        0,
        1,
        1,
        1,
        1,
        1,
        1,
        1,
        1,
        1,
        1,
        1,
        1,
        1,
        1,
        1,
        1,
        1,
        1,
        1,
        1,
        1,
        1,
        7,
        21,
        7,
        1,
        1,
        1,
        1,
        1,
        1,
        1,
        1,
        1,
        1,
        1,
        1,
        1,
        1,
        1,
        1,
        1,
        1,
        1,
        1,
        1,
        1,
        7,
        21,
        7,
        1,
        1,
        1,
        1,
        1,
        1,
        1,
        1,
        1,
        1,
        1,
        1,
        1,
        1,
        1,
        1,
        1,
        1,
        1,
        1,
        1,
        1,
        7,
        21,
        7,
        1,
        1,
        1,
        1,
        1,
        1,
        1,
        1,
        1,
        1,
        1,
        1,
        1,
        1,
        1,
        1,
        1,
        1,
        1,
        1,
        1,
        1,
        7,
        21,
        7,
        1,
        1,
        1,
        1,
        1,
        1,
        1,
        1,
        1,
        1,
        1,
        1,
        1,
        1,
        1,
        1,
        1,
        1,
        1,
        1,
        21,
        21,
        21,
        21,
        21,
        21,
        21,
        1,
        1,
        1,
        1,
        1,
        1,
        1,
        1,
        1,
        1,
        1,
        1,
        1,
        1,
        1,
        1,
        1,
        1,
        1,
        1,
        1,
        1,
        1,
        1,
        1,
        1,
        1,
        1,
        1,
        1,
        1,
        1,
        1,
        1,
        1,
        1,
        1,
        1,
        1,
        1,
        1,
        1,
        1,
        1,
        1,
        1,
        1,
        1,
        1,
        1,
        1,
        1,
        1,
        1,
        1,
        1,
        1,
        1,
        1,
        1,
        1,
        1,
        1,
        1,
        1,
        1,
        1,
        1,
        1,
        1,
        1,
        1,
        1,
        1,
        1,
        1,
        1,
        1,
        1,
        1,
        1,
        1,
        1,
        1,
        1,
        1,
        1,
        1,
        1,
        1,
        1,
        1,
        1,
        1,
        1,
        1,
        1,
        1,
        1,
        1,
        1,
        1,
        1,
        1,
        1,
        1,
        1,
        1,
        1,
        1,
        1,
        1,
        1,
        1,
        1,
        1,
        1,
        1,
        1,
        1,
        1,
        1,
        1,
        1,
        1,
        1,
        1,
        1,
        1,
        1,
        1,
        1,
        1,
        1,
        1,
        1,
        1,
        1,
        1,
        1,
        1,
        1,
        1,
        1,
        1,
        1,
        1,
        1,
        1,
        1,
        1,
        1,
        1,
        1,
        1,
        1,
        1,
        1,
        1,
        1,
        1,
        1,
        1,
        1,
        1,
        1,
        1,
        1,
        1,
        1,
        1,
        1,
        1,
        1,
        1,
        1,
        1,
        1,
        1,
        1,
        1,
        1,
        1,
        1,
        1,
        1,
        1,
        1,
        1,
        1,
        1,
        1,
        1,
        1,
        1,
        1,
        1,
        1,
        1,
        1,
        1,
        1,
        1,
        1,
        1,
        1,
        1,
        1,
        1,
        1,
        1,
        1,
        1,
        1,
        1,
        1,
        1,
        1,
        1,
        1,
        1,
        1,
        1,
        1,
        1,
        1,
        1,
        1,
        1,
        1,
        1,
        1,
        1,
        1,
        1,
        1,
        1,
        1,
        1,
        1,
        1,
        1,
        1,
        1,
        1,
        1,
        1,
        1,
        1,
        1,
        1,
        1,
        1,
        1,
        1,
        1,
        1,
        1,
        1,
        1,
        1,
        1,
        1,
        1,
        1,
        1,
        1,
        1,
        1,
        1,
        1,
        1,
        1,
        1,
        1,
        1,
        1,
        1,
        1,
        1,
        1,
        1,
        1,
        1,
        1,
        1
      ]
    },
    {
      "id": 1,
      "type": "tilelayer",
      "name": "ground",
      "visible": true,
      "opacity": 1,
      "width": 25,
      "height": 21,
      "data": [
        1,
        1,
        1,
        1,
        1,
        1,
        1,
        1,
        1,
        27,
        22,
        26,
        1,
        1,
        1,
        8,
        1,
        1,
        8,
        1,
        2,
        2,
        2,
        2,
        2,
        1,
        1,
        1,
        1,
        1,
        1,
        1,
        1,
        27,
        31,
        2,
        30,
        26,
        1,
        1,
        1,
        1,
        1,
        1,
        1,
        1,
        7,
        1,
        5,
        2,
        1,
        1,
        1,
        1,
        1,
        1,
        1,
        1,
        2,
        2,
        2,
        2,
        2,
        1,
        1,
        1,
        1,
        1,
        1,
        1,
        5,
        5,
        7,
        2,
        2,
        1,
        1,
        1,
        1,
        1,
        1,
        1,
        2,
        2,
        33,
        23,
        32,
        2,
        2,
        1,
        1,
        1,
        1,
        1,
        1,
        2,
        5,
        5,
        7,
        2,
        1,
        1,
        1,
        1,
        1,
        1,
        1,
        2,
        50,
        25,
        0,
        24,
        50,
        2,
        1,
        1,
        1,
        1,
        1,
        1,
        2,
        2,
        7,
        1,
        2,
        1,
        1,
        1,
        1,
        1,
        1,
        1,
        2,
        50,
        0,
        21,
        0,
        50,
        2,
        1,
        1,
        1,
        1,
        1,
        1,
        2,
        8,
        2,
        7,
        2,
        1,
        1,
        1,
        1,
        1,
        1,
        1,
        2,
        50,
        8,
        21,
        8,
        50,
        2,
        1,
        1,
        1,
        1,
        1,
        1,
        1,
        1,
        1,
        1,
        2,
        1,
        1,
        1,
        1,
        1,
        1,
        1,
        2,
        50,
        0,
        21,
        0,
        50,
        2,
        1,
        1,
        40,
        35,
        35,
        35,
        1,
        1,
        1,
        1,
        1,
        1,
        1,
        1,
        1,
        1,
        1,
        1,
        2,
        50,
        8,
        21,
        8,
        50,
        2,
        1,
        1,
        37,
        50,
        50,
        50,
        1,
        1,
        1,
        1,
        1,
        1,
        1,
        1,
        1,
        1,
        1,
        1,
        21,
        21,
        21,
        21,
        21,
        21,
        21,
        1,
        1,
        37,
        50,
        50,
        50,
        1,
        1,
        1,
        1,
        2,
        1,
        1,
        1,
        1,
        1,
        1,
        1,
        1,
        1,
        1,
        1,
        1,
        1,
        1,
        1,
        1,
        37,
        50,
        50,
        50,
        2,
        2,
        7,
        7,
        2,
        1,
        1,
        1,
        1,
        1,
        1,
        1,
        1,
        1,
        1,
        1,
        1,
        1,
        1,
        1,
        1,
        37,
        50,
        50,
        50,
        1,
        5,
        1,
        5,
        2,
        1,
        1,
        1,
        1,
        1,
        1,
        1,
        1,
        1,
        1,
        1,
        1,
        1,
        1,
        1,
        1,
        37,
        50,
        50,
        50,
        1,
        2,
        2,
        2,
        2,
        1,
        1,
        1,
        1,
        1,
        1,
        1,
        1,
        1,
        1,
        1,
        1,
        1,
        1,
        1,
        1,
        37,
        50,
        50,
        50,
        2,
        7,
        1,
        8,
        2,
        1,
        1,
        1,
        1,
        1,
        1,
        1,
        1,
        1,
        1,
        1,
        1,
        1,
        1,
        1,
        1,
        1,
        1,
        1,
        1,
        1,
        1,
        5,
        2,
        2,
        2,
        1,
        1,
        1,
        2,
        1,
        1,
        2,
        2,
        1,
        1,
        1,
        1,
        1,
        1,
        2,
        6,
        6,
        2,
        1,
        2,
        1,
        5,
        1,
        2,
        2,
        2,
        7,
        1,
        2,
        7,
        5,
        2,
        2,
        1,
        1,
        1,
        1,
        1,
        1,
        1,
        2,
        1,
        2,
        5,
        1,
        1,
        1,
        5,
        2,
        2,
        8,
        2,
        1,
        2,
        7,
        1,
        1,
        2,
        1,
        1,
        1,
        1,
        1,
        5,
        1,
        2,
        5,
        2,
        1,
        7,
        1,
        2,
        5,
        2,
        2,
        7,
        1,
        5,
        7,
        2,
        1,
        1,
        2,
        1,
        1,
        1,
        1,
        1,
        2,
        2,
        1,
        1,
        1,
        2,
        2,
        2,
        7,
        1,
        2,
        2,
        5,
        5,
        1,
        7,
        1,
        7,
        1,
        2,
        1,
        1,
        1,
        1,
        1,
        1,
        5,
        7,
        1,
        1,
        5,
        1,
        5,
        7,
        1,
        2,
        2,
        2,
        2,
        2,
        2,
        2,
        2,
        2,
        2,
        2,
        1,
        1,
        2,
        2,
        2,
        2,
        2,
        2,
        2,
        2,
        2,
        2,
        2,
        2,
        2
      ]
    },
    {
      "id": 2,
      "type": "objectgroup",
      "name": "markers",
      "visible": true,
      "opacity": 1,
      "objects": [
        {
          "id": 1,
          "name": "spawn",
          "type": "spawn",
          "x": 22,
          "y": 81
        },
        {
          "id": 6,
          "name": "sign_6",
          "type": "sign",
          "x": 239,
          "y": 182,
          "width": 16,
          "height": 16,
          "properties": [
            {
              "name": "text",
              "type": "string",
              "value": "A wooden sign..."
            }
          ]
        },
        {
          "id": 7,
          "name": "to_boss",
          "type": "door",
          "x": 144,
          "y": 64,
          "width": 48,
          "height": 16,
          "properties": [
            {
              "name": "target_map",
              "type": "string",
              "value": "knight_boss"
            },
            {
              "name": "spawn_x",
              "type": "string",
              "value": "120"
            },
            {
              "name": "spawn_y",
              "type": "string",
              "value": "200"
            }
          ]
        },
        {
          "id": 8,
          "name": "door_N",
          "type": "door",
          "x": 256,
          "y": 0,
          "width": 32,
          "height": 16,
          "properties": [
            {
              "name": "target_map",
              "type": "string",
              "value": "F-5"
            },
            {
              "name": "spawn_x",
              "type": "string",
              "value": "160"
            },
            {
              "name": "spawn_y",
              "type": "string",
              "value": "200"
            }
          ]
        },
        {
          "id": 9,
          "name": "door_S",
          "type": "door",
          "x": 160,
          "y": 320,
          "width": 32,
          "height": 16,
          "properties": [
            {
              "name": "target_map",
              "type": "string",
              "value": "H-5"
            },
            {
              "name": "spawn_x",
              "type": "string",
              "value": "160"
            },
            {
              "name": "spawn_y",
              "type": "string",
              "value": "40"
            }
          ]
        },
        {
          "id": 10,
          "name": "door_W",
          "type": "door",
          "x": 0,
          "y": 0,
          "width": 16,
          "height": 239,
          "properties": [
            {
              "name": "target_map",
              "type": "string",
              "value": "G-4"
            },
            {
              "name": "spawn_x",
              "type": "string",
              "value": "280"
            },
            {
              "name": "spawn_y",
              "type": "string",
              "value": "*"
            }
          ]
        },
        {
          "id": 11,
          "name": "door_E",
          "type": "door",
          "x": 384,
          "y": 112,
          "width": 16,
          "height": 32,
          "properties": [
            {
              "name": "target_map",
              "type": "string",
              "value": "G-6"
            },
            {
              "name": "spawn_x",
              "type": "string",
              "value": "32"
            },
            {
              "name": "spawn_y",
              "type": "string",
              "value": "112"
            }
          ]
        }
      ]
    }
  ],
  "nextlayerid": 4,
  "nextobjectid": 12,
  "tilesets": []
}