{
  "compressionlevel": -1,
  "width": 20,
  "height": 15,
  "infinite": false,
  "tilewidth": 16,
  "tileheight": 16,
  "type": "map",
  "version": "1.10",
  "tiledversion": "1.10.2",
  "orientation": "orthogonal",
  "renderorder": "right-down",
  "layers": [
    {
      "id": 1,
      "type": "tilelayer",
      "name": "ground",
      "visible": true,
      "opacity": 1,
      "width": 20,
      "height": 15,
      "data": [
        2,
        2,
        2,
        2,
        2,
        2,
        2,
        2,
        2,
        2,
        1,
        1,
        2,
        2,
        2,
        2,
        2,
        2,
        2,
        2,
        2,
        1,
        1,
        1,
        1,
        1,
        1,
        1,
        1,
        1,
        1,
        1,
        1,
        1,
        1,
        1,
        1,
        1,
        1,
        2,
        2,
        1,
        1,
        1,
        1,
        1,
        1,
        1,
        1,
        1,
        1,
        1,
        1,
        1,
        1,
        1,
        1,
        1,
        1,
        2,
        2,
        1,
        1,
        1,
        1,
        1,
        1,
        1,
        1,
        1,
        1,
        1,
        1,
        1,
        1,
        1,
        1,
        1,
        1,
        2,
        2,
        1,
        1,
        1,
        1,
        1,
        1,
        1,
        1,
        1,
        1,
        1,
        1,
        1,
        1,
        1,
        1,
        1,
        1,
        2,
        2,
        1,
        1,
        1,
        1,
        1,
        1,
        1,
        1,
        1,
        1,
        1,
        1,
        1,
        1,
        1,
        1,
        1,
        1,
        2,
        2,
        1,
        1,
        1,
        1,
        1,
        1,
        1,
        1,
        1,
        1,
        1,
        1,
        1,
        1,
        1,
        1,
        1,
        1,
        2,
        1,
        1,
        1,
        1,
        1,
        1,
        1,
        1,
        1,
        1,
        1,
        1,
        1,
        1,
        1,
        1,
        1,
        1,
        1,
        1,
        1,
        1,
        1,
        1,
        1,
        1,
        1,
        1,
        1,
        1,
        1,
        1,
        1,
        1,
        1,
        1,
        1,
        1,
        1,
        1,
        2,
        1,
        1,
        1,
        1,
        1,
        1,
        1,
        1,
        1,
        1,
        1,
        1,
        1,
        1,
        1,
        1,
        1,
        1,
        2,
        2,
        1,
        1,
        1,
        1,
        1,
        1,
        1,
        1,
        1,
        1,
        1,
        1,
        1,
        1,
        1,
        1,
        1,
        1,
        2,
        2,
        1,
        1,
        1,
        1,
        1,
        1,
        1,
        1,
        1,
        1,
        1,
        1,
        1,
        1,
        1,
        1,
        1,
        1,
        2,
        2,
        1,
        1,
        1,
        1,
        1,
        1,
        1,
        1,
        1,
        1,
        1,
        1,
        1,
        1,
        1,
        1,
        1,
        1,
        2,
        2,
        1,
        1,
        1,
        1,
        1,
        1,
        1,
        1,
        1,
        1,
        1,
        1,
        1,
        1,
        1,
        1,
        1,
        1,
        2,
        2,
        2,
        2,
        2,
        2,
        2,
        2,
        2,
        2,
        2,
        1,
        1,
        2,
        2,
        2,
        2,
        2,
        2,
        2,
        2
      ]
    },
    {
      "id": 2,
      "type": "objectgroup",
      "name": "markers",
      "visible": true,
      "opacity": 1,
      "objects": [
        {
          "id": 1,
          "name": "spawn",
          "type": "spawn",
          "x": 160,
          "y": 120
        },
        {
          "id": 2,
          "name": "door_N",
          "type": "door",
          "x": 160,
          "y": 0,
          "width": 32,
          "height": 16,
          "properties": [
            {
              "name": "target_map",
              "type": "string",
              "value": "I-1"
            },
            {
              "name": "spawn_x",
              "type": "string",
              "value": "160"
            },
            {
              "name": "spawn_y",
              "type": "string",
              "value": "200"
            }
          ]
        },
        {
          "id": 3,
          "name": "door_S",
          "type": "door",
          "x": 160,
          "y": 224,
          "width": 32,
          "height": 16,
          "properties": [
            {
              "name": "target_map",
              "type": "string",
              "value": "I-3"
            },
            {
              "name": "spawn_x",
              "type": "string",
              "value": "160"
            },
            {
              "name": "spawn_y",
              "type": "string",
              "value": "40"
            }
          ]
        },
        {
          "id": 4,
          "name": "door_W",
          "type": "door",
          "x": 0,
          "y": 112,
          "width": 16,
          "height": 32,
          "properties": [
            {
              "name": "target_map",
              "type": "string",
              "value": "H-2"
            },
            {
              "name": "spawn_x",
              "type": "string",
              "value": "280"
            },
            {
              "name": "spawn_y",
              "type": "string",
              "value": "112"
            }
          ]
        },
        {
          "id": 5,
          "name": "door_E",
          "type": "door",
          "x": 304,
          "y": 112,
          "width": 16,
          "height": 32,
          "properties": [
            {
              "name": "target_map",
              "type": "string",
              "value": "J-2"
            },
            {
              "name": "spawn_x",
              "type": "string",
              "value": "32"
            },
            {
              "name": "spawn_y",
              "type": "string",
              "value": "112"
            }
          ]
        }
      ]
    }
  ],
  "nextlayerid": 3,
  "nextobjectid": 6,
  "tilesets": []
}