{
  "compressionlevel": -1,
  "width": 15,
  "height": 15,
  "infinite": false,
  "tilewidth": 16,
  "tileheight": 16,
  "type": "map",
  "version": "1.10",
  "orientation": "orthogonal",
  "renderorder": "right-down",
  "layers": [
    {
      "id": 3,
      "type": "tilelayer",
      "name": "base",
      "visible": true,
      "opacity": 1,
      "width": 15,
      "height": 15,
      "data": [
        1,
        1,
        1,
        1,
        1,
        1,
        1,
        1,
        1,
        1,
        1,
        1,
        1,
        1,
        1,
        1,
        1,
        1,
        1,
        1,
        1,
        1,
        1,
        1,
        1,
        1,
        1,
        1,
        1,
        1,
        1,
        1,
        1,
        1,
        1,
        1,
        1,
        1,
        1,
        1,
        1,
        1,
        1,
        1,
        1,
        1,
        1,
        1,
        1,
        1,
        1,
        1,
        1,
        1,
        1,
        1,
        1,
        1,
        1,
        1,
        1,
        1,
        1,
        1,
        1,
        1,
        1,
        1,
        1,
        1,
        1,
        1,
        1,
        1,
        1,
        1,
        1,
        1,
        1,
        1,
        1,
        1,
        1,
        1,
        1,
        1,
        1,
        1,
        1,
        1,
        1,
        1,
        1,
        1,
        1,
        1,
        1,
        1,
        1,
        1,
        1,
        1,
        1,
        1,
        1,
        1,
        1,
        1,
        1,
        1,
        1,
        1,
        1,
        1,
        1,
        1,
        1,
        1,
        1,
        1,
        1,
        1,
        1,
        1,
        1,
        1,
        1,
        1,
        1,
        1,
        1,
        1,
        1,
        1,
        1,
        1,
        1,
        1,
        1,
        1,
        1,
        1,
        1,
        1,
        1,
        1,
        1,
        1,
        1,
        1,
        1,
        1,
        1,
        1,
        1,
        1,
        1,
        1,
        1,
        1,
        1,
        1,
        1,
        1,
        1,
        1,
        1,
        1,
        1,
        1,
        1,
        1,
        1,
        1,
        1,
        1,
        1,
        1,
        1,
        1,
        1,
        1,
        1,
        1,
        1,
        1,
        1,
        1,
        1,
        1,
        1,
        1,
        1,
        1,
        1,
        1,
        1,
        1,
        1,
        1,
        1,
        1,
        1,
        1,
        1,
        1,
        1,
        1,
        1,
        1,
        1,
        1,
        1,
        1,
        1,
        1,
        1,
        1,
        1,
        1,
        1,
        1,
        1,
        1,
        1
      ]
    },
    {
      "id": 1,
      "type": "tilelayer",
      "name": "ground",
      "visible": true,
      "opacity": 1,
      "width": 15,
      "height": 15,
      "data": [
        2,
        2,
        2,
        2,
        2,
        2,
        6,
        6,
        2,
        2,
        2,
        2,
        2,
        2,
        2,
        2,
        7,
        7,
        7,
        7,
        7,
        7,
        7,
        7,
        7,
        7,
        7,
        7,
        7,
        2,
        2,
        7,
        7,
        7,
        7,
        7,
        7,
        7,
        7,
        7,
        7,
        7,
        7,
        7,
        2,
        2,
        7,
        7,
        50,
        7,
        7,
        7,
        7,
        7,
        7,
        7,
        50,
        7,
        7,
        2,
        2,
        7,
        7,
        7,
        7,
        7,
        7,
        7,
        7,
        7,
        7,
        7,
        7,
        7,
        2,
        2,
        7,
        7,
        7,
        7,
        7,
        7,
        7,
        7,
        7,
        7,
        7,
        7,
        7,
        2,
        2,
        7,
        7,
        7,
        7,
        7,
        7,
        7,
        7,
        7,
        7,
        7,
        7,
        7,
        2,
        2,
        7,
        7,
        7,
        7,
        7,
        7,
        7,
        7,
        7,
        7,
        7,
        7,
        7,
        2,
        2,
        7,
        7,
        7,
        7,
        7,
        7,
        7,
        7,
        7,
        7,
        7,
        7,
        7,
        2,
        2,
        7,
        7,
        7,
        7,
        7,
        7,
        7,
        7,
        7,
        7,
        7,
        7,
        7,
        2,
        2,
        7,
        7,
        7,
        7,
        7,
        7,
        7,
        7,
        7,
        7,
        7,
        7,
        7,
        2,
        2,
        7,
        7,
        7,
        7,
        7,
        7,
        7,
        7,
        7,
        7,
        7,
        7,
        7,
        2,
        2,
        7,
        7,
        50,
        7,
        7,
        7,
        7,
        7,
        7,
        7,
        50,
        7,
        7,
        2,
        2,
        7,
        7,
        7,
        7,
        7,
        7,
        7,
        7,
        7,
        7,
        7,
        7,
        7,
        2,
        2,
        2,
        2,
        2,
        2,
        2,
        7,
        7,
        7,
        2,
        2,
        2,
        2,
        2,
        2
      ]
    },
    {
      "id": 2,
      "type": "objectgroup",
      "name": "markers",
      "visible": true,
      "opacity": 1,
      "objects": [
        {
          "id": 1,
          "name": "spawn",
          "type": "spawn",
          "x": 120,
          "y": 200
        },
        {
          "id": 2,
          "name": "boss",
          "type": "enemy",
          "x": 120,
          "y": 96,
          "width": 16,
          "height": 16,
          "properties": [
            {
              "name": "hp",
              "type": "int",
              "value": 15
            },
            {
              "name": "damage",
              "type": "int",
              "value": 2
            },
            {
              "name": "is_boss",
              "type": "bool",
              "value": true
            },
            {
              "name": "is_armored_knight",
              "type": "bool",
              "value": true
            },
            {
              "name": "armor_hp",
              "type": "int",
              "value": 3
            },
            {
              "name": "speed",
              "type": "float",
              "value": 0.25
            }
          ]
        },
        {
          "id": 3,
          "name": "to_maze2",
          "type": "door",
          "x": 96,
          "y": 224,
          "width": 48,
          "height": 16,
          "properties": [
            {
              "name": "target_map",
              "type": "string",
              "value": "G-5"
            },
            {
              "name": "spawn_x",
              "type": "string",
              "value": "167"
            },
            {
              "name": "spawn_y",
              "type": "string",
              "value": "95"
            }
          ]
        },
        {
          "id": 4,
          "type": "door",
          "x": 96,
          "y": 0,
          "width": 32,
          "height": 16,
          "properties": [
            {
              "name": "target_map",
              "type": "string",
              "value": "F-5"
            },
            {
              "name": "spawn_x",
              "type": "string",
              "value": "112"
            },
            {
              "name": "spawn_y",
              "type": "string",
              "value": "0"
            }
          ]
        }
      ]
    }
  ],
  "nextlayerid": 4,
  "nextobjectid": 5,
  "tilesets": []
}