{
  "compressionlevel": -1,
  "width": 25,
  "height": 21,
  "infinite": false,
  "tilewidth": 16,
  "tileheight": 16,
  "type": "map",
  "version": "1.10",
  "tiledversion": "1.10.2",
  "orientation": "orthogonal",
  "renderorder": "right-down",
  "layers": [
    {
      "id": 1,
      "type": "tilelayer",
      "name": "ground",
      "visible": true,
      "opacity": 1,
      "width": 25,
      "height": 21,
      "data": [
        2,
        2,
        2,
        2,
        2,
        2,
        2,
        2,
        2,
        2,
        2,
        2,
        2,
        2,
        2,
        2,
        2,
        2,
        2,
        2,
        2,
        2,
        2,
        2,
        2,
        2,
        1,
        1,
        7,
        2,
        7,
        2,
        1,
        2,
        7,
        1,
        1,
        1,
        1,
        2,
        7,
        1,
        1,
        1,
        1,
        1,
        7,
        1,
        5,
        2,
        2,
        7,
        1,
        1,
        8,
        1,
        1,
        1,
        1,
        1,
        1,
        2,
        1,
        1,
        2,
        7,
        7,
        2,
        2,
        2,
        5,
        5,
        7,
        2,
        2,
        2,
        1,
        2,
        1,
        8,
        1,
        2,
        1,
        1,
        1,
        2,
        1,
        7,
        7,
        2,
        1,
        7,
        1,
        1,
        7,
        2,
        5,
        5,
        7,
        2,
        2,
        1,
        7,
        2,
        2,
        2,
        2,
        2,
        5,
        5,
        5,
        5,
        7,
        1,
        2,
        2,
        2,
        2,
        1,
        1,
        2,
        2,
        7,
        1,
        2,
        2,
        7,
        7,
        1,
        2,
        8,
        1,
        7,
        5,
        5,
        5,
        5,
        5,
        7,
        1,
        1,
        2,
        7,
        1,
        7,
        2,
        8,
        2,
        7,
        2,
        2,
        2,
        7,
        1,
        2,
        2,
        2,
        2,
        5,
        5,
        5,
        5,
        2,
        2,
        1,
        7,
        1,
        1,
        1,
        2,
        1,
        7,
        2,
        5,
        2,
        2,
        1,
        1,
        1,
        2,
        2,
        1,
        5,
        5,
        5,
        5,
        5,
        1,
        1,
        1,
        1,
        1,
        1,
        1,
        7,
        1,
        5,
        2,
        7,
        2,
        2,
        7,
        2,
        2,
        2,
        1,
        1,
        2,
        7,
        5,
        7,
        2,
        1,
        7,
        2,
        2,
        2,
        2,
        2,
        2,
        2,
        2,
        5,
        1,
        2,
        2,
        1,
        7,
        7,
        2,
        1,
        2,
        7,
        1,
        1,
        1,
        1,
        1,
        1,
        1,
        7,
        1,
        1,
        7,
        7,
        1,
        7,
        1,
        1,
        2,
        2,
        2,
        1,
        1,
        2,
        1,
        2,
        2,
        2,
        2,
        2,
        2,
        2,
        2,
        1,
        1,
        1,
        8,
        8,
        8,
        2,
        2,
        7,
        7,
        2,
        2,
        1,
        1,
        7,
        2,
        1,
        2,
        1,
        7,
        1,
        1,
        2,
        1,
        1,
        1,
        1,
        8,
        8,
        8,
        8,
        1,
        5,
        1,
        5,
        2,
        2,
        1,
        7,
        2,
        2,
        1,
        2,
        7,
        1,
        2,
        2,
        2,
        2,
        2,
        2,
        2,
        5,
        5,
        5,
        5,
        1,
        2,
        2,
        2,
        2,
        2,
        7,
        1,
        1,
        1,
        7,
        2,
        2,
        2,
        2,
        2,
        1,
        1,
        7,
        2,
        1,
        5,
        5,
        5,
        5,
        2,
        7,
        1,
        8,
        2,
        2,
        2,
        2,
        2,
        2,
        2,
        2,
        2,
        2,
        2,
        2,
        2,
        2,
        6,
        6,
        2,
        2,
        2,
        5,
        5,
        2,
        1,
        5,
        2,
        2,
        2,
        1,
        1,
        1,
        2,
        1,
        1,
        2,
        2,
        2,
        2,
        2,
        2,
        2,
        2,
        2,
        6,
        6,
        2,
        1,
        2,
        1,
        5,
        1,
        2,
        2,
        2,
        7,
        1,
        2,
        7,
        5,
        2,
        2,
        5,
        1,
        2,
        2,
        2,
        1,
        1,
        2,
        1,
        2,
        5,
        1,
        1,
        1,
        5,
        2,
        2,
        8,
        2,
        1,
        2,
        7,
        1,
        1,
        2,
        5,
        2,
        7,
        1,
        1,
        5,
        1,
        2,
        5,
        2,
        1,
        7,
        1,
        2,
        5,
        2,
        2,
        7,
        1,
        5,
        7,
        2,
        1,
        1,
        2,
        7,
        1,
        1,
        7,
        2,
        2,
        2,
        1,
        1,
        1,
        2,
        2,
        2,
        7,
        1,
        2,
        2,
        5,
        5,
        1,
        7,
        1,
        7,
        1,
        2,
        1,
        7,
        7,
        2,
        8,
        1,
        5,
        7,
        1,
        1,
        5,
        1,
        5,
        7,
        1,
        2,
        2,
        2,
        2,
        2,
        2,
        2,
        2,
        2,
        2,
        2,
        2,
        2,
        2,
        2,
        2,
        2,
        2,
        2,
        2,
        2,
        2,
        2,
        2,
        2,
        2
      ],
      "properties": [
        {
          "name": "proc_seed",
          "type": "string",
          "value": "1"
        },
        {
          "name": "proc_style",
          "type": "string",
          "value": "backtracker"
        },
        {
          "name": "proc_cells_w",
          "type": "string",
          "value": "12"
        },
        {
          "name": "proc_cells_h",
          "type": "string",
          "value": "10"
        },
        {
          "name": "proc_floor_grass_w",
          "type": "string",
          "value": "0.5"
        },
        {
          "name": "proc_floor_water_w",
          "type": "string",
          "value": "0.2"
        },
        {
          "name": "proc_floor_floor2_w",
          "type": "string",
          "value": "0.3"
        },
        {
          "name": "proc_tree_deadend_p",
          "type": "string",
          "value": "0.35"
        }
      ]
    },
    {
      "id": 2,
      "type": "objectgroup",
      "name": "markers",
      "visible": true,
      "opacity": 1,
      "objects": [
        {
          "id": 1,
          "name": "spawn",
          "type": "spawn",
          "x": 19,
          "y": 45
        },
        {
          "id": 5,
          "name": "to_field1",
          "type": "door",
          "x": 9,
          "y": -2,
          "width": 16,
          "height": 32,
          "properties": [
            {
              "name": "target_map",
              "type": "string",
              "value": "field1"
            },
            {
              "name": "spawn_x",
              "type": "string",
              "value": "280"
            },
            {
              "name": "spawn_y",
              "type": "string",
              "value": "208"
            }
          ]
        }
      ]
    }
  ],
  "nextlayerid": 3,
  "nextobjectid": 6,
  "tilesets": []
}